X:1
T:Why Not I?
T:Why Not I?
T:Stephen Van Rensselaer Ford
T:Stephen Van Rensselaer Ford, 1891
T:Public Domain Courtesy of the Cyber Hymnal™
C:Stephen Van Rensselaer Ford
Z:Public Domain
Z:Courtesy of the Cyber Hymnal™
%%score ( 1 2 ) ( 3 4 )
L:1/8
Q:1/4=90
M:3/4
K:G
V:1 treble 
V:2 treble 
V:3 bass 
V:4 bass 
V:1
 [B,D]>[B,D] | [B,G]3 [B,G] [DF]>[CE] | ([B,D]2 [DG]2) [DG]>[FA] | (B2 d2) [Fc]>[GB] | [FA]4 D>D | %5
w: 1.~Lit- tle|birds their Mak- er|praise, * Why not|I? * Why not|I? Songs of|
w: 2.~Lit- tle|birds are free from|care, * Why not|I? * Why not|I? Hap- py|
w: 3.~Lit- tle|birds are free from|sin, * Why not|I? * Why not|I? Pure and|
 [DG]3 [DG] [DF]>[CE] | ([B,D]2 [DG]2) [DF]>[DG] | (A2 c2) [DB]>[CA] | [B,G]4 || %9
w: gra- ti- tude they|raise, * Why not|I? * Why not|I?|
w: all the day they|are, * Why not|I? * Why not|I?|
w: in- no- cent with-|in, * Why not|I? * Why not|I?|
"^Refrain" [DF]>[DG] | [DA]3 [Dc] [DB]>[DA] | (B2 d2) [DG]>[DG] | [EG]3 [EG] [GB]>[FA] | %13
w: ||||
w: He who|notes the spar- row’s|fall, * Is my|Lord, my life, my|
w: ||||
 [FA]4 [GB]>[DA] | [DG]3 [DG] [FA]>[GB] | c4 [Gd]>[Gc] | [DB]3 [DG] [DA]>[CF] | [B,G]4 |] %18
w: |||||
w: all; ’Twas for|me He came to|die, Who should|praise Him if not|I?|
w: |||||
V:2
 x2 | x6 | x6 | G4 x2 | x4 D>D | x6 | x6 | D4 x2 | x4 || x2 | x6 | D4 x2 | x6 | x6 | x6 | %15
 (E2 G2) x2 | x6 | x4 |] %18
V:3
 [G,,G,]>[G,,G,] | [G,,G,]3 [G,,G,] [G,,G,]>[G,,G,] | (G,2 B,2) [D,B,]>[D,D] | D4 [A,D]>[G,D] | %4
 [D,D]4 [G,B,]>[G,B,] | [G,B,]3 [G,B,] [G,D]>[G,D] | (D2 B,2) [D,A,]>[D,G,] | %7
 (F,2 A,2) [D,G,]>[D,F,] | [G,,G,]4 || [D,A,]>[D,B,] | [D,F,]3 [D,A,] [D,G,]>[D,F,] | %11
 (G,2 B,2) [G,B,]>[G,B,] | [E,B,]3 [E,B,] [D,G,]>[D,D] | [D,D]4 [G,D]>[G,C] | %14
 [G,B,]3 [G,B,] [D,D]>[G,D] | [C,C]4 [G,B,]>[G,E] | [G,D]3 [B,,G,] [D,F,]>[D,A,] | [G,,G,]4 |] %18
V:4
 x2 | x6 | G,,4 x2 | (G,2 B,2) x2 | x6 | x6 | G,4 x2 | D,4 x2 | x4 || x2 | x6 | G,4 x2 | x6 | x6 | %14
 x6 | x6 | x6 | x4 |] %18

